packages/dnb-ui-lib/assets/icons/trash.svg

<svg width="16" height="16" viewBox="0 0 16 16" fill="none" xmlns="http://www.w3.org/2000/svg">
<path d="M9.5 11.5V6.5M6.5 11.5V6.5M1 3H15M12.5767 14.0827C12.5559 14.3327 12.4419 14.5659 12.2573 14.7358C12.0727 14.9057 11.8309 15 11.58 15H4.42067C4.16975 15 3.92798 14.9057 3.74336 14.7358C3.55874 14.5659 3.44474 14.3327 3.424 14.0827L2.5 3H13.5L12.5767 14.0827ZM9.5 1H6.5C6.23478 1 5.98043 1.10536 5.79289 1.29289C5.60536 1.48043 5.5 1.73478 5.5 2V3H10.5V2C10.5 1.73478 10.3946 1.48043 10.2071 1.29289C10.0196 1.10536 9.76522 1 9.5 1Z" stroke="black" stroke-width="1.5" stroke-linecap="round" stroke-linejoin="round"/>
</svg>

<svg width="16" height="16" viewBox="0 0 16 16" fill="none" xmlns="http://www.w3.org/2000/svg"><path d="M9.5 11.5v-5m-3 5v-5M1 3h14m-2.423 11.083a1 1 0 01-.997.917H4.42a1 1 0 01-.996-.917L2.5 3h11l-.923 11.083zM9.5 1h-3a1 1 0 00-1 1v1h5V2a1 1 0 00-1-1z" stroke="#000" stroke-width="1.5" stroke-linecap="round" stroke-linejoin="round"/></svg>
